dist/images/3_pessoal.svg

<svg id="Layer_1" xmlns="http://www.w3.org/2000/svg" viewBox="0 0 10 10"><style>.st0{fill:#f8f9fa}</style><title>Icons</title><path class="st0" d="M7.9 5H6.1c-.1 0-.1.1-.1.1 0 .1 0 .1.1.1h1.8c.1 0 .1 0 0-.2.1.1.1 0 0 0zm0 .6H6.1c-.1 0-.1.1-.1.1 0 .1 0 .1.1.1h1.8c.1 0 .1 0 0-.2.1.1.1 0 0 0zm0 .7H6.1c-.1 0-.1 0-.1.1s0 .1.1.1h1.8c.1-.1.1-.1 0-.2.1 0 .1 0 0 0zm0 .6H6.1c-.1 0-.1 0-.1.1 0 0 0 .1.1.1h1.8c.1 0 .1-.1 0-.2.1 0 .1 0 0 0zm0 .6H6.1c-.1 0-.1 0-.1.1s0 .1.1.1h1.8c.1 0 .1-.1 0-.2.1 0 .1 0 0 0zM3.5 6c.4 0 .7-.3.7-.7 0-.4-.3-.7-.7-.7-.4 0-.7.3-.7.7 0 .4.3.7.7.7zM3 5.3c0-.3.2-.5.5-.5s.5.2.5.5-.2.5-.5.5-.5-.2-.5-.5zm1.2.7c-.4.4-1 .4-1.4 0h-.1c-.3 0-.5.2-.5.5v1.1s0 .1.1.1h2.5s.1 0 .1-.1V6.5c-.1-.3-.3-.5-.7-.5zm.4.5v1H2.4v-1c0-.2.2-.4.4-.4.4.4 1.1.4 1.6 0 .1 0 .2.2.2.4z"/><path class="st0" d="M8 2.7H5.5V1.4c0-.1 0-.1-.1-.1h-.9c-.1 0-.1 0-.1.1v1.2H1.9c-.3 0-.5.2-.5.5V8c0 .3.2.5.5.5H8c.3 0 .5-.2.5-.5V3.2c0-.3-.2-.5-.5-.5zM4.6 1.5h.7v2h-.7v-2zm-.1 2.2h.9c.1 0 .1 0 .1-.1v-.2h.1c.2 0 .3.1.3.3 0 .2-.1.3-.3.3H4.3c-.2-.1-.3-.2-.3-.4s.1-.3.3-.3h.1l.1.4c-.1 0-.1 0 0 0zm3.8 4.4c0 .2-.1.3-.3.3H1.9c-.2 0-.3-.1-.3-.3V3.2c0-.2.1-.3.3-.3h2.5v.3h-.1c-.3 0-.5.2-.5.4 0 .3.2.5.5.5h1.3c.2 0 .4-.2.4-.5s-.2-.4-.4-.4h-.1v-.3H8c.2 0 .3.1.3.3v4.9z"/></svg>

<?xml version="1.0" encoding="utf-8"?>
<!-- Generator: Adobe Illustrator 21.1.0, SVG Export Plug-In . SVG Version: 6.00 Build 0)  -->
<svg version="1.1" id="Layer_1" xmlns="http://www.w3.org/2000/svg" xmlns:xlink="http://www.w3.org/1999/xlink" x="0px" y="0px"
	 viewBox="0 0 10 10" style="enable-background:new 0 0 10 10;" xml:space="preserve">
<style type="text/css">
	.st0{fill:#F8F9FA;}
</style>
<title>Icons</title>
<path class="st0" d="M7.9,5H6.1C6,5,6,5.1,6,5.1c0,0.1,0,0.1,0.1,0.1h1.8C8,5.2,8,5.2,7.9,5C8,5.1,8,5,7.9,5z"/>
<path class="st0" d="M7.9,5.6H6.1C6,5.6,6,5.7,6,5.7c0,0.1,0,0.1,0.1,0.1h1.8C8,5.8,8,5.8,7.9,5.6C8,5.7,8,5.6,7.9,5.6z"/>
<path class="st0" d="M7.9,6.3H6.1C6,6.3,6,6.3,6,6.4c0,0.1,0,0.1,0.1,0.1h1.8C8,6.4,8,6.4,7.9,6.3C8,6.3,8,6.3,7.9,6.3z"/>
<path class="st0" d="M7.9,6.9H6.1C6,6.9,6,6.9,6,7C6,7,6,7.1,6.1,7.1h1.8C8,7.1,8,7,7.9,6.9C8,6.9,8,6.9,7.9,6.9z"/>
<path class="st0" d="M7.9,7.5H6.1C6,7.5,6,7.5,6,7.6c0,0.1,0,0.1,0.1,0.1h1.8C8,7.7,8,7.6,7.9,7.5C8,7.5,8,7.5,7.9,7.5z"/>
<path class="st0" d="M3.5,6c0.4,0,0.7-0.3,0.7-0.7c0-0.4-0.3-0.7-0.7-0.7c-0.4,0-0.7,0.3-0.7,0.7C2.8,5.7,3.1,6,3.5,6z M3,5.3
	C3,5,3.2,4.8,3.5,4.8S4,5,4,5.3c0,0.3-0.2,0.5-0.5,0.5C3.2,5.8,3,5.6,3,5.3L3,5.3z"/>
<path class="st0" d="M4.2,6C4.2,6,4.2,6,4.2,6C3.8,6.4,3.2,6.4,2.8,6c0,0,0,0-0.1,0C2.4,6,2.2,6.2,2.2,6.5v1.1c0,0,0,0.1,0.1,0.1
	c0,0,0,0,0,0h2.5c0,0,0.1,0,0.1-0.1V6.5C4.8,6.2,4.6,6,4.2,6z M4.6,6.5v1H2.4v-1c0-0.2,0.2-0.4,0.4-0.4c0.4,0.4,1.1,0.4,1.6,0
	C4.5,6.1,4.6,6.3,4.6,6.5L4.6,6.5z"/>
<path class="st0" d="M8,2.7H5.5V1.4c0-0.1,0-0.1-0.1-0.1c0,0,0,0,0,0H4.5c-0.1,0-0.1,0-0.1,0.1c0,0,0,0,0,0v0.8h0v0.4H1.9
	c-0.3,0-0.5,0.2-0.5,0.5v4.9c0,0.3,0.2,0.5,0.5,0.5H8c0.3,0,0.5-0.2,0.5-0.5c0,0,0,0,0,0V3.2C8.5,2.9,8.3,2.7,8,2.7z M4.6,1.5h0.7v2
	H4.6V1.5z M4.5,3.7h0.9c0.1,0,0.1,0,0.1-0.1c0,0,0,0,0,0V3.4h0.1c0.2,0,0.3,0.1,0.3,0.3c0,0.2-0.1,0.3-0.3,0.3c0,0,0,0,0,0H4.3
	C4.1,3.9,4,3.8,4,3.6c0-0.2,0.1-0.3,0.3-0.3h0.1L4.5,3.7C4.4,3.7,4.4,3.7,4.5,3.7C4.5,3.7,4.5,3.7,4.5,3.7z M8.3,8.1
	c0,0.2-0.1,0.3-0.3,0.3H1.9c-0.2,0-0.3-0.1-0.3-0.3V3.2c0-0.2,0.1-0.3,0.3-0.3h2.5v0.2h0v0.1H4.3C4,3.2,3.8,3.4,3.8,3.6
	c0,0.3,0.2,0.5,0.5,0.5h1.3C5.8,4.1,6,3.9,6,3.6S5.8,3.2,5.6,3.2c0,0,0,0,0,0H5.5V3h0V2.9H8c0.2,0,0.3,0.1,0.3,0.3V8.1z"/>
</svg>
